symbols/web/hdr_on/materialsymbolssharp/hdr_on_grad200_20px.svg

<svg xmlns="http://www.w3.org/2000/svg" height="20" width="20"><path d="M13.25 12.708V7.292h4.479v3.833h-.687l.812 1.583h-1.625l-.771-1.479h-.583v1.479Zm1.625-3.104h1.25v-.687h-1.25ZM2.146 12.708V7.292h1.625v1.687h1.354V7.292H6.75v5.416H5.125v-2.104H3.771v2.104Zm5.542 0V7.292h2.979q.708 0 1.166.458.459.458.459 1.167v2.166q0 .709-.459 1.167-.458.458-1.166.458Zm1.624-1.625h1.355V8.917H9.312Z"/></svg>

<svg xmlns="http://www.w3.org/2000/svg" height="20" width="20"><path d="M13.25 12.708V7.292H17.729V11.125H17.042L17.854 12.708H16.229L15.458 11.229H14.875V12.708ZM14.875 9.604H16.125V8.917H14.875ZM2.146 12.708V7.292H3.771V8.979H5.125V7.292H6.75V12.708H5.125V10.604H3.771V12.708ZM7.688 12.708V7.292H10.667Q11.375 7.292 11.833 7.75Q12.292 8.208 12.292 8.917V11.083Q12.292 11.792 11.833 12.25Q11.375 12.708 10.667 12.708ZM9.312 11.083H10.667Q10.667 11.083 10.667 11.083Q10.667 11.083 10.667 11.083V8.917Q10.667 8.917 10.667 8.917Q10.667 8.917 10.667 8.917H9.312Z"/></svg>
